X:1
T:Title
%%score { ( 1 4 ) | ( 2 3 ) }
L:1/8
Q:1/4=100
M:6/8
K:C
V:1 treble nm="Grand Piano"
V:4 treble 
V:2 bass 
V:3 bass 
V:1
 [EG]2 [EG] [FA][EG][_E^F] | [EG]3 [CE]3 | [Ec]2 [Ec] [Ec][GB][FA] | [EG]3 [EG]3 | F2 F FED | %5
w: J.~Lincoln~Hall * * * *|||||
 E3 [EG]3 | ^F2 F FGA | G6 | B2 B BAB | [Ec]3 [EG]3 | A2 A ABc | B6 | [Ec][Ec][Ec] [Ec][FB][Gc] | %13
w: ||||||||
 d3 A3 | BBB BAB | [CEc]6 | G2 G GAG | [FB]6 | G2 G GAG | [Ec]6 | [Ge][Ge][Ge] [Ge][Gd][Gc] | %21
w: ||||||||
 [Fd]3 [FA]3 | [^FA][FA][FA] [FA][FB][Fc] | d6 | G2 G GAG | [FB]6 | G2 G GAG | [Ec]6 | %28
w: |||||||
 [Ge][Ge][Ge] [Ge][Gd][Gc] | d3 A3 | BBB BAB | [Ec]6 |] %32
w: ||||
V:2
 [C,C]2 [C,C] [C,C]2 [C,C] | [C,C]3 [C,G,]3 | [C,G,]2 [C,G,] [C,G,]2 [C,C] | [C,C]3 [C,C]3 | %4
 [G,B,D]2 [G,B,D] DC[G,B,] | [C,G,C]3 [C,C]3 | [D,A,D]2 [D,A,D] [D,D]-[D,B,D][D,CD] | [G,B,D]6 | %8
 [G,DF]2 [G,DF] [G,DF]2 [G,DF] | [C,C]3 [C,C]3 | z3 .C3[K:treble] | [G,F]6 | %12
 [C,C][C,G,][C,G,] [C,G,][D,G,][E,G,] | [F,A,F]3 [F,DF]3 | [G,DF][G,DF][G,DF] [G,DF][G,CF][G,DF] | %15
 C,6 | E2[K:treble] E EFE | G,G,G, G,3 | F2 F FFF | C,C,C, C,3 | [C,C][C,C][C,C] [C,C][D,B,][E,C] | %21
 [F,A,]3 [F,D]3 | [D,D][D,D][D,D] [D,D][D,D][D,C] | [G,B,F]6 | E2 E EFE | G,G,G, G,3 | F2 F FFF | %27
 C,C,C, C,3 | [C,C][C,C][C,C] [C,C][D,B,][E,C] | [F,A,F]3 [F,DF]3 | %30
 [G,DF][G,DF][G,DF] [G,DF][G,DF][G,DF] | [C,C]6 |] %32
V:3
 x6 | x6 | x6 | x6 | z3 .G,3 | x6 | z3 .A,3 | x6 | x6 | x6 | %10
 [F,CF]2 [F,CF] [F,F]-[F,B,F][K:treble][F,A,F] | x6 | x6 | x6 | x6 | x6 | x2[K:treble] x4 | x6 | %18
 x6 | x6 | x6 | x6 | x6 | x6 | x6 | x6 | x6 | x6 | x6 | x6 | x6 | x6 |] %32
V:4
 x6 | x6 | x6 | x6 | x6 | x6 | x6 | x6 | x6 | x6 | x6 | z3 D3 | x6 | x6 | x6 | x6 | x6 | DDD D3 | %18
 x6 | CB,A, G,3 | x6 | x6 | x6 | x6 | x6 | DDD D3 | x6 | CB,A, G,3 | x6 | x6 | x6 | x6 |] %32

